X: 1
T: Corie
C: David A. Kaynor (Jan 2019)
%D:2019
S: http://www.natunelist.net/corie/
S: Youtube video of David and friends playing it.
Z: 2019 John Chambers <jc:trillian.mit.edu>
M: C
L: 1/8
K: D
DE |\
"D"F6 EF | "G"G6 EG | "D"F3F E2D2 | A,6 A,2 |\
"G"B,4 D4 | "D"A,4 D3E | "A"E8- | E6 DE |
"D"F6 EF | "G"G6 EG | "D"F3F E2D2 | A,6 A,2 |\
"G"B,4 G3F | "A"E3D C2D2 | "D"D8- | D2A2 "A"B2c2 ||
"D"d3d c2A2 | "G"B6 cd | "A"e3d c2d2 | "D"d4 f2g2 |\
"D"a4 g2f2 | "G"g3f e2d2 | "A"A8- | A6 fg |
"D"a3a g2f2 | "G"g6 eg | "D"f3f "A"e2d2 | "D"A6 A2 |\
"G"B4 g4 | "A"e3d c2d2 | "D"d8- | d6 |]
